logo-linkedin.svg

<svg width="512" height="512" viewBox="0 0 512 512" xmlns="http://www.w3.org/2000/svg" xmlns:sketch="http://www.bohemiancoding.com/sketch/ns"><title>linkedin 2</title><desc>Created with Sketch.</desc><path d="M0 256c0 141.385 114.615 256 256 256s256-114.615 256-256-114.615-256-256-256-256 114.615-256 256zm192 160h-64v-224h64v224zm-32-256c-17.673 0-32-14.327-32-32 0-17.673 14.327-32 32-32 17.673 0 32 14.327 32 32 0 17.673-14.327 32-32 32zm256 256h-64v-128c0-17.673-14.327-32-32-32-17.673 0-32 14.327-32 32v128h-64v-224h64v39.736c13.199-18.132 33.376-39.736 56-39.736 39.765 0 72 35.817 72 80v144z" sketch:type="MSShapeGroup" fill="#000"/></svg>

<?xml version="1.0" encoding="UTF-8" standalone="no"?>
<svg width="512px" height="512px" viewBox="0 0 512 512" version="1.1" xmlns="http://www.w3.org/2000/svg" xmlns:xlink="http://www.w3.org/1999/xlink" xmlns:sketch="http://www.bohemiancoding.com/sketch/ns">
    <!-- Generator: Sketch 3.0.3 (7891) - http://www.bohemiancoding.com/sketch -->
    <title>linkedin 2</title>
    <desc>Created with Sketch.</desc>
    <defs></defs>
    <g id="Page-1" stroke="none" stroke-width="1" fill="none" fill-rule="evenodd" sketch:type="MSPage">
        <g id="linkedin" sketch:type="MSLayerGroup" fill="#000000">
            <path d="M0,256 C3.49705965e-14,397.384896 114.615104,512 256,512 C397.384896,512 512,397.384896 512,256 C512,114.615104 397.384896,1.22437709e-15 256,0 C114.615104,-1.22437709e-15 -8.05350006e-15,114.615104 1.34585482e-14,256 L0,256 Z M192,416 L128,416 L128,192 L192,192 L192,416 L192,416 Z M160,160 C142.327,160 128,145.673 128,128 C128,110.327 142.327,96 160,96 C177.673,96 192,110.327 192,128 C192,145.673 177.673,160 160,160 L160,160 Z M416,416 L352,416 L352,288 C352,270.327 337.673,256 320,256 C302.327,256 288,270.327 288,288 L288,416 L224,416 L224,192 L288,192 L288,231.736 C301.199,213.604 321.376,192 344,192 C383.765,192 416,227.817 416,272 L416,416 L416,416 Z" id="Shape" sketch:type="MSShapeGroup"></path>
        </g>
    </g>
</svg>
